src/assets/icons/svg/picture.svg

<svg width="53" height="53" viewBox="0 0 53 53" fill="none" xmlns="http://www.w3.org/2000/svg">
<path d="M50.9297 38.9219C49.7863 38.9219 48.8594 39.8487 48.8594 40.9922C48.8594 43.2753 47.0019 45.1328 44.7188 45.1328H28.9155L24.1554 38.9575L39.1804 19.8466L49.3317 31.957C49.3519 31.9815 49.3726 32.0055 49.3938 32.0289C49.3946 32.0297 49.3953 32.0305 49.396 32.0314C49.3985 32.0341 49.4011 32.0369 49.4037 32.0397C49.5922 32.2456 49.8137 32.4051 50.0533 32.5168C50.2995 32.632 50.5721 32.7001 50.8595 32.7096C50.8648 32.7098 50.8701 32.71 50.8753 32.7101C50.8763 32.7101 50.8772 32.7101 50.878 32.7102C51.026 32.7139 51.1744 32.7019 51.3207 32.674L51.3262 32.6729C51.3326 32.6717 51.339 32.6705 51.3455 32.6691C51.3481 32.6686 51.3508 32.668 51.3535 32.6675C51.3591 32.6663 51.3647 32.6652 51.3703 32.6639C51.3734 32.6632 51.3765 32.6626 51.3796 32.6619C51.3846 32.6607 51.3897 32.6596 51.3948 32.6585C51.3984 32.6576 51.402 32.6568 51.4055 32.6559C51.4101 32.6548 51.4147 32.6537 51.4192 32.6527C51.4231 32.6517 51.427 32.6507 51.4309 32.6498C51.4352 32.6487 51.4395 32.6476 51.4437 32.6465C51.4477 32.6455 51.4515 32.6445 51.4554 32.6434C51.4598 32.6423 51.464 32.6412 51.4684 32.64C51.4723 32.639 51.4762 32.6379 51.4802 32.6368L51.4923 32.6335C51.4965 32.6323 51.5008 32.631 51.505 32.6299C51.5092 32.6287 51.5132 32.6275 51.5172 32.6264C51.5206 32.6254 51.5239 32.6244 51.5273 32.6234C51.5324 32.6218 51.5375 32.6203 51.5425 32.6187C51.5453 32.6179 51.5481 32.6169 51.5508 32.6161C51.556 32.6146 51.561 32.6129 51.5662 32.6112C51.5693 32.6102 51.5724 32.6092 51.5755 32.6081C51.5806 32.6065 51.5858 32.6047 51.5908 32.6031C51.5932 32.6022 51.5956 32.6014 51.598 32.6007C51.6037 32.5987 51.6095 32.5968 51.6152 32.5948C51.6173 32.5941 51.6195 32.5932 51.6217 32.5925C51.6276 32.5904 51.6334 32.5884 51.6392 32.5862C51.641 32.5855 51.6429 32.5849 51.6448 32.5841C51.6512 32.5817 51.6575 32.5795 51.6638 32.577L51.667 32.5757C51.6741 32.5731 51.6811 32.5704 51.6881 32.5676C51.6886 32.5675 51.689 32.5673 51.6894 32.567C51.6969 32.564 51.7045 32.561 51.7121 32.5579C51.8041 32.5204 51.8941 32.4757 51.9815 32.4241C51.9828 32.4234 51.984 32.4226 51.9852 32.4219C51.9911 32.4184 51.997 32.4149 52.0029 32.4114C52.1145 32.3436 52.2192 32.2655 52.3157 32.1784C52.3174 32.1769 52.3191 32.1753 52.3208 32.1738C52.3224 32.1723 52.3239 32.1709 52.3255 32.1695C52.533 31.9802 52.6938 31.7575 52.8061 31.5163C52.9215 31.2692 52.9897 30.9956 52.9988 30.707C52.9989 30.7032 52.999 30.6996 52.9991 30.6959C52.9991 30.6935 52.9992 30.6911 52.9992 30.6889C52.9993 30.6818 52.9995 30.6747 52.9996 30.6676C52.9996 30.6674 52.9996 30.6673 52.9996 30.6671C52.9997 30.6563 52.9997 30.6453 52.9997 30.6343V12.0078C52.9997 7.44153 49.2847 3.72656 44.7184 3.72656H8.28125C3.71497 3.72656 0 7.44143 0 12.0078V40.9922C0 45.5585 3.71497 49.2734 8.28125 49.2734H27.8844C27.8893 49.2734 27.8941 49.2735 27.899 49.2735C27.9055 49.2735 27.912 49.2735 27.9185 49.2734H44.7188C49.285 49.2734 53 45.5585 53 40.9922C53 39.8486 52.0731 38.9219 50.9297 38.9219ZM8.28125 45.1328C5.99811 45.1328 4.14062 43.2753 4.14062 40.9922V12.0078C4.14062 9.72467 5.99811 7.86719 8.28125 7.86719H44.7188C47.0019 7.86719 48.8594 9.72467 48.8594 12.0078V24.948L40.7155 15.2325C40.3149 14.7545 39.7214 14.483 39.0965 14.4924C38.4729 14.5021 37.8868 14.7926 37.5014 15.2828L21.5478 35.5746L16.1319 28.5485C15.74 28.0399 15.1342 27.7421 14.4922 27.7421H14.4912C13.8487 27.7424 13.2429 28.0409 12.8512 28.5501L8.29491 34.4732C7.59784 35.3795 7.76729 36.6793 8.67357 37.3765C9.58006 38.0737 10.8798 37.9041 11.5769 36.9978L14.4938 33.2057L23.6877 45.1328H8.28125Z" fill="black"/>
<path d="M14.4922 11.1797C11.0675 11.1797 8.28125 13.9659 8.28125 17.3906C8.28125 20.8153 11.0675 23.6016 14.4922 23.6016C17.9169 23.6016 20.7031 20.8153 20.7031 17.3906C20.7031 13.9659 17.9169 11.1797 14.4922 11.1797ZM14.4922 19.4609C13.3506 19.4609 12.4219 18.5322 12.4219 17.3906C12.4219 16.2491 13.3506 15.3203 14.4922 15.3203C15.6338 15.3203 16.5625 16.2491 16.5625 17.3906C16.5625 18.5322 15.6338 19.4609 14.4922 19.4609Z" fill="black"/>
</svg>

<?xml version="1.0" encoding="iso-8859-1"?>
<!-- Generator: Adobe Illustrator 23.1.0, SVG Export Plug-In . SVG Version: 6.00 Build 0)  -->
<svg version="1.1" id="&#x421;&#x43B;&#x43E;&#x439;_1"
	 xmlns="http://www.w3.org/2000/svg" xmlns:xlink="http://www.w3.org/1999/xlink" x="0px" y="0px" viewBox="0 0 53 53"
	 style="enable-background:new 0 0 53 53;" xml:space="preserve">
<path d="M50.93,38.922c-1.143,0-2.07,0.927-2.07,2.07c0,2.283-1.858,4.141-4.141,4.141H28.916l-4.76-6.175L39.18,19.847
	l10.151,12.11c0.02,0.024,0.041,0.049,0.062,0.072c0.001,0.001,0.002,0.002,0.002,0.002c0.002,0.003,0.005,0.006,0.008,0.008
	c0.188,0.206,0.41,0.365,0.65,0.477c0.246,0.115,0.519,0.183,0.806,0.193c0.005,0,0.011,0,0.016,0c0.001,0,0.002,0,0.003,0
	c0.148,0.004,0.296-0.008,0.443-0.036l0.005-0.001c0.006-0.001,0.013-0.002,0.019-0.004c0.003-0.001,0.005-0.001,0.008-0.002
	c0.006-0.001,0.011-0.002,0.017-0.004c0.003-0.001,0.006-0.001,0.009-0.002c0.005-0.001,0.01-0.002,0.015-0.003
	c0.004-0.001,0.007-0.002,0.011-0.003c0.005-0.001,0.009-0.002,0.014-0.003c0.004-0.001,0.008-0.002,0.012-0.003
	c0.004-0.001,0.009-0.002,0.013-0.003c0.004-0.001,0.008-0.002,0.012-0.003c0.004-0.001,0.009-0.002,0.013-0.003
	c0.004-0.001,0.008-0.002,0.012-0.003l0.012-0.003c0.004-0.001,0.009-0.002,0.013-0.004c0.004-0.001,0.008-0.002,0.012-0.004
	c0.003-0.001,0.007-0.002,0.01-0.003c0.005-0.002,0.01-0.003,0.015-0.005c0.003-0.001,0.006-0.002,0.008-0.003
	c0.005-0.001,0.01-0.003,0.015-0.005c0.003-0.001,0.006-0.002,0.009-0.003c0.005-0.002,0.01-0.003,0.015-0.005
	c0.002-0.001,0.005-0.002,0.007-0.002c0.006-0.002,0.012-0.004,0.017-0.006c0.002-0.001,0.004-0.002,0.007-0.002
	c0.006-0.002,0.012-0.004,0.017-0.006c0.002-0.001,0.004-0.001,0.006-0.002c0.006-0.002,0.013-0.005,0.019-0.007l0.003-0.001
	c0.007-0.003,0.014-0.005,0.021-0.008c0,0,0.001,0,0.001-0.001c0.007-0.003,0.015-0.006,0.023-0.009
	c0.092-0.037,0.182-0.082,0.269-0.134c0.001-0.001,0.003-0.001,0.004-0.002c0.006-0.004,0.012-0.007,0.018-0.011
	c0.112-0.068,0.216-0.146,0.313-0.233c0.002-0.001,0.003-0.003,0.005-0.005c0.002-0.002,0.003-0.003,0.005-0.004
	c0.208-0.189,0.368-0.412,0.481-0.653c0.115-0.247,0.184-0.521,0.193-0.809c0-0.004,0-0.007,0-0.011c0-0.002,0-0.005,0-0.007
	c0-0.007,0-0.014,0-0.021c0,0,0,0,0,0c0-0.011,0-0.022,0-0.033V12.008c0-4.566-3.715-8.281-8.281-8.281H8.281
	C3.715,3.727,0,7.441,0,12.008v28.984c0,4.566,3.715,8.281,8.281,8.281h19.603c0.005,0,0.01,0,0.015,0c0.007,0,0.013,0,0.02,0h16.8
	c4.566,0,8.281-3.715,8.281-8.281C53,39.849,52.073,38.922,50.93,38.922z M8.281,45.133c-2.283,0-4.141-1.858-4.141-4.141V12.008
	c0-2.283,1.857-4.141,4.141-4.141h36.438c2.283,0,4.141,1.857,4.141,4.141v12.94l-8.144-9.715c-0.401-0.478-0.994-0.75-1.619-0.74
	c-0.624,0.01-1.21,0.3-1.595,0.79L21.548,35.575l-5.416-7.026c-0.392-0.509-0.998-0.806-1.64-0.806h-0.001
	c-0.643,0-1.248,0.299-1.64,0.808l-4.556,5.923c-0.697,0.906-0.528,2.206,0.379,2.903c0.906,0.697,2.206,0.528,2.903-0.379
	l2.917-3.792l9.194,11.927H8.281z"/>
<path d="M14.492,11.18c-3.425,0-6.211,2.786-6.211,6.211s2.786,6.211,6.211,6.211s6.211-2.786,6.211-6.211
	S17.917,11.18,14.492,11.18z M14.492,19.461c-1.142,0-2.07-0.929-2.07-2.07c0-1.142,0.929-2.07,2.07-2.07s2.07,0.929,2.07,2.07
	C16.563,18.532,15.634,19.461,14.492,19.461z"/>
</svg>
